assets/logos/SVG/color/otalk-small.svg

<?xml version="1.0" encoding="UTF-8" standalone="no"?>
<svg width="294px" height="100px" viewBox="0 0 294 100" version="1.1" xmlns="http://www.w3.org/2000/svg" xmlns:xlink="http://www.w3.org/1999/xlink" xmlns:sketch="http://www.bohemiancoding.com/sketch/ns">
    <!-- Generator: Sketch 3.0.3 (7891) - http://www.bohemiancoding.com/sketch -->
    <title>Untitled 2</title>
    <desc>Created with Sketch.</desc>
    <defs></defs>
    <g id="Page-1" stroke="none" stroke-width="1" fill="none" fill-rule="evenodd" sketch:type="MSPage">
        <g id="otalk" sketch:type="MSLayerGroup">
            <g id="Group" sketch:type="MSShapeGroup">
                <path d="M86.2532432,78.3683168 L86.2532432,41.260396 L77.3349122,41.260396 L77.3349122,27.3782178 L86.2532432,27.3782178 L86.2532432,8.02178218 L102.362655,8.02178218 L102.362655,27.3782178 L121.269041,27.3782178 L121.269041,41.260396 L102.362655,41.260396 L102.362655,75.8326733 C102.362655,82.1069307 105.558912,84.6465347 111.01877,84.6465347 C114.613318,84.6465347 117.804608,83.8425743 121.002851,82.2435644 L121.002851,95.4564356 C117.010014,97.7287129 112.480824,99.0584158 106.490574,99.0584158 C94.6411824,99.0584158 86.2532432,93.8574257 86.2532432,78.3683168" id="Shape" fill="#00A3DB"></path>
                <path d="M172.329689,97.8613861 L172.329689,89.1821782 C167.539277,94.9237624 160.216095,99.329703 149.561574,99.329703 C136.247149,99.329703 124.533831,91.7217822 124.533831,77.570297 L124.533831,77.3049505 C124.533831,61.6871287 136.650405,54.209901 153.026007,54.209901 C161.545054,54.209901 167.005905,55.4089109 172.463777,57.1445545 L172.463777,55.8128713 C172.463777,46.0653465 166.338446,40.7277228 155.154527,40.7277228 C147.299959,40.7277228 141.443797,42.4633663 135.052277,45.1316832 L130.658169,32.1841584 C138.382622,28.7148515 145.970007,26.3118812 157.419122,26.3118812 C178.188831,26.3118812 188.307993,37.2564356 188.307993,56.0811881 L188.307993,97.8613861 L172.330682,97.8613861 L172.329689,97.8613861 Z M172.72798,68.3594059 C168.600061,66.7564356 162.876,65.5594059 156.618568,65.5594059 C146.502385,65.5594059 140.511142,69.6940594 140.511142,76.5059406 L140.511142,76.7712871 C140.511142,83.4455446 146.502385,87.1821782 154.091757,87.1821782 C164.741311,87.1821782 172.72798,81.1752475 172.72798,72.3643564 L172.72798,68.360396 L172.72798,68.3594059 Z" id="Shape" fill="#00A3DB"></path>
                <path d="M200.190162,0.413861386 L216.297588,0.413861386 L216.297588,97.860396 L200.190162,97.860396 L200.190162,0.413861386 L200.190162,0.413861386 Z" id="Shape" fill="#00A3DB"></path>
                <path d="M228.562155,0.413861386 L244.671568,0.413861386 L244.671568,58.6158416 L273.829216,27.3782178 L293.399088,27.3782178 L265.44227,56.080198 L294.332736,97.860396 L275.694527,97.860396 L254.525534,67.4247525 L244.671568,77.7029703 L244.671568,97.8613861 L228.562155,97.8613861 L228.562155,0.414851485" id="Shape" fill="#00A3DB"></path>
                <path d="M20.8859189,95.1950495 C11.7917838,102.30396 -0.287047297,99.9079208 -0.287047297,99.9079208 C-0.287047297,99.9079208 10.3207905,88.209901 7.36191892,82.9693069 C3.97893243,76.9920792 1.4630473,70.3663366 1.4630473,63.019802 L1.4630473,62.7524752 C1.4630473,42.5990099 17.4423446,25.909901 39.0096284,25.909901 C60.5769122,25.909901 76.4201351,42.3316832 76.4201351,62.4871287 L76.4201351,62.7524752 C76.4201351,82.7782178 60.4428243,99.4643564 38.7434392,99.4643564 C32.1651892,99.4643564 26.1133581,97.9178218 20.8859189,95.1950495 L20.8859189,95.1950495 Z M60.310723,63.0188119 L60.310723,62.7514851 C60.310723,50.3376238 51.3923919,40.0584158 38.7434392,40.0584158 C25.8273041,40.0584158 17.5744459,50.2079208 17.5744459,62.4861386 L17.5744459,62.7514851 C17.5744459,75.0366337 26.4947635,85.4445545 39.0096284,85.4445545 C52.0558784,85.4445545 60.310723,75.1663366 60.310723,63.0188119 L60.310723,63.0188119 Z" id="Shape" fill="#D8117D"></path>
            </g>
        </g>
    </g>
</svg>

<svg width="295" height="101" xmlns="http://www.w3.org/2000/svg" xmlns:sketch="http://www.bohemiancoding.com/sketch/ns"><title>Untitled 3</title><desc>Created with Sketch.</desc><g sketch:type="MSShapeGroup" fill="none"><path d="M86.253 78.368v-37.108h-8.918v-13.882h8.918v-19.356h16.109v19.356h18.906v13.882h-18.906v34.572c0 6.274 3.196 8.814 8.656 8.814 3.595 0 6.786-.804 9.984-2.403v13.213c-3.993 2.272-8.522 3.602-14.512 3.602-11.849 0-20.237-5.201-20.237-20.69" id="Shape" fill="#00B0E9"/><path d="M172.33 97.861v-8.679c-4.79 5.742-12.114 10.148-22.768 10.148-13.314 0-25.028-7.608-25.028-21.759v-.265c0-15.618 12.117-23.095 28.492-23.095 8.519 0 13.98 1.199 19.438 2.935v-1.332c0-9.748-6.125-15.085-17.309-15.085-7.855 0-13.711 1.736-20.102 4.404l-4.394-12.948c7.724-3.469 15.312-5.872 26.761-5.872 20.77 0 30.889 10.945 30.889 29.769v41.78h-15.978zm.398-29.502c-4.128-1.603-9.852-2.8-16.109-2.8-10.116 0-16.107 4.135-16.107 10.947v.265c0 6.674 5.991 10.411 13.581 10.411 10.65 0 18.636-6.007 18.636-14.818v-4.005z" id="Shape" fill="#00B0E9"/><path d="M200.19.414h16.107v97.447h-16.107v-97.447z" id="Shape" fill="#00B0E9"/><path d="M228.562.414h16.109v58.202l29.158-31.238h19.57l-27.957 28.702 28.89 41.78h-18.638l-21.169-30.436-9.854 10.278v20.158h-16.109v-97.447" fill="#00B0E9"/><path d="M20.886 95.195c-9.094 7.109-21.173 4.713-21.173 4.713s10.608-11.698 7.649-16.939c-3.383-5.977-5.899-12.603-5.899-19.95v-.267c0-20.153 15.979-36.843 37.547-36.843 21.567 0 37.411 16.422 37.411 36.577v.265c0 20.026-15.977 36.712-37.677 36.712-6.578 0-12.63-1.547-17.858-4.269zm39.425-32.176v-.267c0-12.414-8.918-22.693-21.567-22.693-12.916 0-21.169 10.15-21.169 22.428v.265c0 12.285 8.92 22.693 21.435 22.693 13.046 0 21.301-10.278 21.301-22.426z" fill="#EE0788"/></g></svg>
